X:85
%%vocalfont Baskerville10Pro 11
%%pagewidth 7in
%%score 1 2
T:Mall Sims
M:C
L:1/8
K:F
%%score 1 2
V:1 clef-treble
V:2 clef-bass octave=-1
V:1
[DFA]6[Adf]2|[A^ce]2A4[ca]2|g2f2e2d2&d4[GB]4|[A^c]4A4&E4x4|(f2ede2)A2&A4A2x2|
V:2
[D,D]4[F,F]4|[A,A]4[F,F]4|[B,B]4[G,G]4|[A,A]4[A,A]4|(d4^c2)[A,A]2|
V:1
G2F2E2[^CA]2|=B^cd2d2c2&E2[DA]2[EA]4|[Fd]4[Dd]4||!p!f>ga2e>fg2&[FAc]4[CGc]4|dfed^c2A2&A2[GB]2[EA]2x2|
V:2
[G,G]2[F,F]2[E,E]2[A,A]2|[G,G]2[F,F]2[A,A]4|[D,D]4[D,D]4||x8|F2G2A4|
V:1
!f!F>GA2E>FG2|DE/F/ ED ^CAA2|!p!defg afd2&B4[Adf]2x2|!f!DEFG AFD2|!p!defg afd2&B4[Adf]2x2|
V:2
F>GA2 E>FG2|DE/F/ ED ^CA,A,2|[Gd]4[DAd]2z2|DEFG AF D2|[Bf]4[Fcf]2z2|
V:1
!f!FGAB cAF2|f4[Ad]2[Ad]2&[FA]4x4|[DFd]2[DFd]2[EA^c]2A2|=B^cd2d2c2&E2[DA]2[EA]4|[Fd]4[Dd]4||
V:2
FGAB cAF2|[Dd]4[Cc]2[Cc]2|[B,B]2[B,B]2[A,A]2[A,A]2|[G,G]2[F,F]2[A,A]4|[D,D]4[D,D]4||

